svgs/android_auto.svg

<svg width="192" height="192" viewBox="0 0 192 192" fill="none" xmlns="http://www.w3.org/2000/svg">
<path d="M56 146H26.0742C22.963 146 21.0428 142.604 22.6466 139.938L92.5724 23.6978C94.1269 21.1137 97.8731 21.1137 99.4276 23.6978L169.353 139.938C170.957 142.604 169.037 146 165.926 146H136" stroke="black" stroke-width="12" stroke-linejoin="round"/>
<path d="M42 170L96 78L150 170L96 146L42 170Z" stroke="black" stroke-width="12" stroke-linejoin="round"/>
</svg>

<svg width="192" height="192" fill="none" xmlns="http://www.w3.org/2000/svg"><path d="M56 146H26.074c-3.111 0-5.031-3.396-3.427-6.062l69.925-116.24c1.555-2.584 5.301-2.584 6.856 0l69.925 116.24c1.604 2.666-.316 6.062-3.427 6.062H136" stroke="#000" stroke-width="12" stroke-linejoin="round"/><path d="m42 170 54-92 54 92-54-24-54 24z" stroke="#000" stroke-width="12" stroke-linejoin="round"/></svg>
